X:36
T:William
C:Pleyel
N:page 22 on manuscript
M:C
L:1/8
K:F
F>A | c2 c2 c2 {e}f2 | c2 c2 c2 (B/A/G/F/) | E2 E2 F2 F2 | G2 z2 z2 C>G | B2 B>c A2 A>B | G2 G>A F2 F2 |
G2 G2 E2 ~E2 | F4 z2 F>A | B2 B>d E2 E>G | F2 F>A c2 f>A | B2 d>B E2 B>E | F4 z2 G2 | A2 F2 F2 ~G2 |
A2 F2 F2 ~G2 | A2 F2F2 ~G2 | A4 z2 =B2 || c2 c2 c2 ~c2 | e2 c2 c2 ~d2 | e2 c2 c2 (3ceg | f2 f>g e2 e>f |
d2 (d>e) c2 (3ceg | f2 (f>g) e2 (e>f) | d2 (d>e) c2 g>e | d2 (d>e) c2 (c>d) | =B4 G4 | G4 z4 | z4 z2 G2 | c2 c2 z2 G2 |
c2 c2 z2 G2 | c2 c2 d2 D2 | E4 F4 | G4 z2 ^G2 | (A2 ^c2) (d2 e2) | f4 (g3 a) | c4 Td3 c | Hc4 z2 F>A | c2 c2 c2 {e}f2 |
c2 c2 c2 (B/A/G/F/) | E2 E2 F2 F2 | G2 z2 z2 C>G | B2 (B>c) A2 (A>B) | G2 (G>A) F2 F2 | G2 G2 E2 E2 | F4 z2 (F/G/A/B/) |
c2 c2 c2 {e}f2 | c2 c2 c2 (B/A/G/F/) | E2 E2 F2 F2 | G4 z2 C>G | B2 (B>c) A2 (A>B) | G2 (G>A) F2 f2 | g2 g2 e2 e2 |
Hf6 ~F2 | G2 G2 E2 E2 | F4 z2 F>A | B2 ~B>d E2 ~E>F | E2 ~E>A c2 ~f>A | B2 ~d>F E2 ~B>E | F2 z2 ~e2 z2 | f4 z2 ||

